!!!COM: Isaac, Heinrich
!!!CDT: ~1450-1517/03/26
!!!OTL: Alla battaglia
!!!AGN: Song; Chanson
!!!SCT: Isa3002
!!!SCA: Isa3002
!!!voices: 4
**kern	**text	**kern	**text	**kern	**text	**kern	**text
*staff4	*staff4	*staff3	*staff3	*staff2	*staff2	*staff1	*staff1
*Ivox	*	*Ivox	*	*Ivox	*	*Ivox	*
*I"Bassus	*	*I"Tenor	*	*I"Altus	*	*I"Superius	*
*I'B	*	*I'T	*	*I'A	*	*I'S	*
*>[A,B,C,D]	*>[A,B,C,D]	*>[A,B,C,D]	*>[A,B,C,D]	*>[A,B,C,D]	*>[A,B,C,D]	*>[A,B,C,D]	*>[A,B,C,D]
*>A	*>A	*>A	*>A	*>A	*>A	*>A	*>A
*clefF4	*	*clefGv2	*	*clefGv2	*	*clefG2	*
*k[b-]	*	*k[b-]	*	*k[b-]	*	*k[b-]	*
*M2/1	*	*M2/1	*	*M2/1	*	*M2/1	*
*met(C|)	*	*met(C|)	*	*met(C|)	*	*met(C|)	*
=1-	=1-	=1-	=1-	=1-	=1-	=1-	=1-
0F	Al-	0r	.	0r	.	0r	.
=2	=2	=2	=2	=2	=2	=2	=2
1G	-la	0r	.	0r	.	0r	.
1G	bat-	.	.	.	.	.	.
=3	=3	=3	=3	=3	=3	=3	=3
1.A	-ta-	0r	.	0F	Al-	0r	.
4G	.	.	.	.	.	.	.
4F	.	.	.	.	.	.	.
=4	=4	=4	=4	=4	=4	=4	=4
2E	.	0r	.	1G	-la	0r	.
1F	.	.	.	.	.	.	.
.	.	.	.	1G	bat-	.	.
2E	.	.	.	.	.	.	.
=5	=5	=5	=5	=5	=5	=5	=5
2F	-glia,	0r	.	1.A	-ta-	0r	.
1C	pre-	.	.	.	.	.	.
4BB-	.	.	.	4G	.	.	.
4AA	.	.	.	4F	.	.	.
=6	=6	=6	=6	=6	=6	=6	=6
2GG	.	0r	.	2E	-glia,	0r	.
2FF	.	.	.	1F	pre-	.	.
1GG	.	.	.	.	.	.	.
.	.	.	.	2E	.	.	.
=7	=7	=7	=7	=7	=7	=7	=7
1FF	-sto	0F	Al-	1F	-sto	0r	.
2r	.	.	.	2r	.	.	.
2FF	al-	.	.	2c	al-	.	.
=8	=8	=8	=8	=8	=8	=8	=8
2C	-la	1G	-la	2c	-la	0r	.
2C	bat-	.	.	2c	bat-	.	.
1C	-ta-	1G	bat-	1c	-ta-	.	.
=9	=9	=9	=9	=9	=9	=9	=9
1FF	-glia,	1.A	-ta-	1c	-glia,	0f	Al-
2r	.	.	.	2r	.	.	.
2FF	al-	4G	.	2c	al-	.	.
.	.	4F	.	.	.	.	.
=10	=10	=10	=10	=10	=10	=10	=10
2C	-la	2E	-glia,	2c	-la	1g	-la
2C	bat-	1F	pre-	2c	bat-	.	.
1C	-ta-	.	.	1c	-ta-	1g	bat-
.	.	2E	.	.	.	.	.
=11	=11	=11	=11	=11	=11	=11	=11
1FF	-glia,	2F	-sto	1c	-glia,	1.a	-ta-
.	.	1c	al-	.	.	.	.
2r	.	.	.	2r	.	.	.
2FF	al-	4B-	.	2c	al-	4g	.
.	.	4A	.	.	.	4f	.
=12	=12	=12	=12	=12	=12	=12	=12
2C	-la	2G	-la	2c	-la	2e	-glia,
2C	bat-	2F	bat-	2c	bat-	1f	pre-
1C	-ta-	1G	-ta-	1c	-ta-	.	.
.	.	.	.	.	.	2e	.
=13	=13	=13	=13	=13	=13	=13	=13
[0FF	-glia	[0F	-glia,	1A	-glia	0f	-sto
.	.	.	.	2r	.	.	.
.	.	.	.	2A	ar-	.	.
=14	=14	=14	=14	=14	=14	=14	=14
1FF]	.	0F]	.	2A	-mi-	1r	.
.	.	.	.	4G	.	.	.
.	.	.	.	4F	.	.	.
2r	.	.	.	2c	.	1c	ar-
[2F	ar-	.	.	[2A	-si	.	.
=15	=15	=15	=15	=15	=15	=15	=15
2F]	.	1r	.	2A]	.	1d	-mi-
4E	.	.	.	4G	.	.	.
4D	.	.	.	4F	.	.	.
1C	-mi-	1C	ar-	2G	.	1e	-si o-
.	.	.	.	2A	o-	.	.
=16	=16	=16	=16	=16	=16	=16	=16
1BB-	-si o-	1D	-mi-	1B-	-gnu-	2f	-gnu-
.	.	.	.	.	.	4e	.
.	.	.	.	.	.	4d	.
2C	-gnu-	2E	-si o-	2A	.	2c	.
2BB-	.	[2F	-gnu-	2B-	.	[2d	.
=17	=17	=17	=17	=17	=17	=17	=17
1AA	.	4F]	.	2c	.	2d]	.
.	.	4E	.	.	.	.	.
.	.	2C	.	2F	.	1c	.
1GG	-no	1D	.	1G	-no	.	.
.	.	.	.	.	.	2Bni	.
=18	=18	=18	=18	=18	=18	=18	=18
2r	.	0C	-no	1r	.	1c	-no
1G	di	.	.	.	.	.	.
.	.	.	.	2r	.	1r	.
4F	.	.	.	2G	di	.	.
4E	.	.	.	.	.	.	.
=19	=19	=19	=19	=19	=19	=19	=19
1.D	.	0r	.	1A	sua	1.f	di
.	.	.	.	2B-	co-	.	.
2C	.	.	.	2c	.	2e	.
=20	=20	=20	=20	=20	=20	=20	=20
1D	sua	0r	.	2A	.	1f	sua
.	.	.	.	2B-	.	.	.
1E	co-	.	.	1G	-ra-	1g	co-
=21	=21	=21	=21	=21	=21	=21	=21
1F	-ra-	1.F	di	2F	.	1a	-ra-
.	.	.	.	4G	.	.	.
.	.	.	.	4A	.	.	.
2BB-	.	.	.	2B-	.	1f	-za,
[2C	.	2E	.	[2A	.	.	.
=22	=22	=22	=22	=22	=22	=22	=22
4C]	.	1F	sua	4A]	.	0r	.
4AA	.	.	.	4G	.	.	.
2BB-	.	.	.	1F	.	.	.
1GG	.	1G	co-	.	.	.	.
.	.	.	.	2E	.	.	.
=23	=23	=23	=23	=23	=23	=23	=23
1FF	-za,	1A	-ra-	1F	-za,	1r	.
1F	.	1F	-za,	2r	.	1f	di
.	.	.	.	2A	di	.	.
=24	=24	=24	=24	=24	=24	=24	=24
2r	.	0r	.	1B-	.	1g	sua
2E	di	.	.	.	.	.	.
1F	.	.	.	2r	.	1a	co-
.	.	.	.	2A	sua	.	.
=25	=25	=25	=25	=25	=25	=25	=25
2r	.	1r	.	1G	.	1b-	-ra-
2E	sua	.	.	.	.	.	.
1F	.	1F	di	2r	.	2a	.
.	.	.	.	2A	co-	[2cc	.
=26	=26	=26	=26	=26	=26	=26	=26
2r	.	1G	sua	1B-	-ra-	2cc]	.
2E	co-	.	.	.	.	2b-	.
1F	-ra-	1A	co-	2r	.	2a	.
.	.	.	.	2A	-za,	4g	.
.	.	.	.	.	.	4f	.
=27	=27	=27	=27	=27	=27	=27	=27
2r	.	1B-	-ra-	1G	.	1g	-za
2E	-za	.	.	.	.	.	.
1F	.	2A	.	2r	.	[1a	e
.	.	[2c	.	2A	co-	.	.
=28	=28	=28	=28	=28	=28	=28	=28
2r	.	2c]	.	2B-	-ra-	2a]	.
2E	e	2B-	.	2G	-za e-	2g	.
1F	ma-	2A	.	2.A	-ma-	[1f	ma-
.	.	4G	.	.	.	.	.
.	.	4F	.	4B-	.	.	.
=29	=29	=29	=29	=29	=29	=29	=29
0C	.	1G	-za e-	0c	.	2f]	.
.	.	.	.	.	.	4e	.
.	.	.	.	.	.	4d	.
.	.	1G	-ma-	.	.	1e	.
=30	=30	=30	=30	=30	=30	=30	=30
0FFl	-glia.-	0Fl	-glia.-	0cl	-glia.-	0fl	-glia.-
!!LO:LB:i:g=z
=31||	=31||	=31||	=31||	=31||	=31||	=31||	=31||
*>B	*>B	*>B	*>B	*>B	*>B	*>B	*>B
*clefF4	*	*clefGv2	*	*clefGv2	*	*clefG2	*
*k[b-]	*	*k[b-]	*	*k[b-]	*	*k[b-]	*
*M2/1	*	*M2/1	*	*M2/1	*	*M2/1	*
*met(C|)	*	*met(C|)	*	*met(C|)	*	*met(C|)	*
!!!OMD: Per parte del excelso
!!section: Per parte del excelso
0r	.	0r	.	[0F	-Per	0r	.
=32	=32	=32	=32	=32	=32	=32	=32
0r	.	0r	.	1F]	.	0r	.
.	.	.	.	1G	par-	.	.
=33	=33	=33	=33	=33	=33	=33	=33
0r	.	0r	.	1.A	-te	[0f	-Per
.	.	.	.	2G	.	.	.
=34	=34	=34	=34	=34	=34	=34	=34
0r	.	0r	.	2A	del	1f]	.
.	.	.	.	2B-	ex-	.	.
.	.	.	.	1G	-cel-	1g	par-
=35	=35	=35	=35	=35	=35	=35	=35
0r	.	[0F	-Per	1F	-so,	1.a	-te
.	.	.	.	[1c	.	.	.
.	.	.	.	.	.	2g	.
=36	=36	=36	=36	=36	=36	=36	=36
0r	.	1F]	.	1c]	.	2a	del
.	.	.	.	.	.	2b-	ex-
.	.	1G	par-	1B-	ex-	1g	-cel-
=37	=37	=37	=37	=37	=37	=37	=37
[0F	-Per	1.A	-te	2A	-cel-	0f	-so
.	.	.	.	1c	.	.	.
.	.	2G	.	2d	.	.	.
=38	=38	=38	=38	=38	=38	=38	=38
1F]	.	2.A	del	2c	.	1r	.
.	.	.	.	1f	.	.	.
.	.	4B-	ex-	.	.	.	.
1G	par-	1G	-cel-	.	.	1b-	ca-
.	.	.	.	2e	.	.	.
=39	=39	=39	=39	=39	=39	=39	=39
1A	-te	1F	-so	2f	.	2a	-pi-
.	.	.	.	4e	.	1cc	-ta-
.	.	.	.	4d	.	.	.
1F	del	1A	ca-	2c	.	.	.
.	.	.	.	2d	.	4b-	.
.	.	.	.	.	.	4a	.
=40	=40	=40	=40	=40	=40	=40	=40
2G	ex-	2G	-pi-	1e	.	4b-	.
.	.	.	.	.	.	4a	.
2E	.	1c	-ta-	.	.	4g	.
.	.	.	.	.	.	4f	.
2F	-cel-	.	.	1d	.	2a	.
2G	-so	2B-	.	.	.	[2g	.
=41	=41	=41	=41	=41	=41	=41	=41
2C	ca-	2c	.	1c	-so	2g]	.
2F	-pi-	2A	.	.	.	1f	.
1C	-ta-	1G	.	2r	.	.	.
.	.	.	.	2c	ca-	2e	.
=42	=42	=42	=42	=42	=42	=42	=42
[0FF	-no,	[0F	-no,	2A	-pi-	1f	-no,
.	.	.	.	2.c	-ta-	.	.
.	.	.	.	.	.	1r	.
.	.	.	.	4B-	.	.	.
.	.	.	.	2c	.	.	.
=43	=43	=43	=43	=43	=43	=43	=43
0FF_	.	0F]	.	2A	-no,	1f	ca-
.	.	.	.	2.c	ca-	.	.
.	.	.	.	.	.	1f	-pi-
.	.	.	.	4B-	.	.	.
.	.	.	.	2c	-pi-	.	.
=44	=44	=44	=44	=44	=44	=44	=44
0FF]	.	0r	.	1.A	-ta-	1.c	-ta-
.	.	.	.	2B-	.	2d	.
=45	=45	=45	=45	=45	=45	=45	=45
0r	.	0r	.	2c	.	2e	.
.	.	.	.	2d	.	2f	.
.	.	.	.	1B-	.	1d	.
=46	=46	=46	=46	=46	=46	=46	=46
1FF	che	1F	che	2c	-no	1c	-no
.	.	.	.	1A	che o-	.	.
1FF	o-	1F	o-	.	.	1f	che o-
.	.	.	.	4G	.	.	.
.	.	.	.	4F	.	.	.
=47	=47	=47	=47	=47	=47	=47	=47
1.C	-gnun	1.C	-gnun	1.E	-gnun	2.g	-gnun
.	.	.	.	.	.	4f	.
.	.	.	.	.	.	2e	.
4BB-	sia	2D	sia	2F	sia	[2d	sia
4AA	.	.	.	.	.	.	.
=48	=48	=48	=48	=48	=48	=48	=48
2GG	pres-	2E	pres-	2G	pres-	4d]	.
.	.	.	.	.	.	4c	.
2FF	.	2F	.	2A	.	1c	pres-
1GG	-to,	1D	.	1G	.	.	.
.	.	.	.	.	.	2Bni	.
=49	=49	=49	=49	=49	=49	=49	=49
1r	.	[0C	-to,	1.E	-to,	0c	-to,
1G	sia	.	.	.	.	.	.
.	.	.	.	2F	.	.	.
=50	=50	=50	=50	=50	=50	=50	=50
2E	pres-	0C]	.	1G	.	1r	.
2C	.	.	.	.	.	.	.
1G	.	.	.	1C	che o-	1c	che o-
=51	=51	=51	=51	=51	=51	=51	=51
1C	-to,	1r	.	[0c	-gnun	1.e	-gnun
1r	.	1C	che o-	.	.	.	.
.	.	.	.	.	.	2f	.
=52	=52	=52	=52	=52	=52	=52	=52
1C	sia	1.E	-gnun	0c_	.	1g	.
2AA	pres-	.	.	.	.	1a	sia
2FF	.	2F	.	.	.	.	.
=53	=53	=53	=53	=53	=53	=53	=53
1C	.	1G	.	0c]	.	1g	pres-
2FF	-to,	1A	sia	.	.	1f	.
[2F	ar-	.	.	.	.	.	.
=54	=54	=54	=54	=54	=54	=54	=54
2F]	.	1G	pres-	2r	.	1b-	-to,
2E	.	.	.	2G	ar-	.	.
2F	.	2F	-to,	2A	.	2a	ar-
2G	.	[2B-	ar-	2B-	.	[2g	-ma-
=55	=55	=55	=55	=55	=55	=55	=55
2E	-ma-	4B-]	.	2G	.	2g]	.
.	.	4c	.	.	.	.	.
2F	.	2A	.	4A	.	1f	.
.	.	.	.	4B-	.	.	.
1C	.	1G	-ma-	1c	-ma-	.	.
.	.	.	.	.	.	2e	.
=56	=56	=56	=56	=56	=56	=56	=56
1FF	-to	0F	-to	1A	-to	1f	-to
1r	.	.	.	1r	.	1r	.
=57	=57	=57	=57	=57	=57	=57	=57
*M3/1	*	*M3/1	*	*M3/1	*	*M3/1	*
*met(3)	*	*met(3)	*	*met(3)	*	*met(3)	*
1.D	e	0.r	.	1.F	in	1a	e
.	.	.	.	.	.	1a	sia in
2E	sia in	.	.	2G	ca-	.	.
1F	ca-	.	.	2A	-mi-	1a	ca-
.	.	.	.	2B-	.	.	.
=58	=58	=58	=58	=58	=58	=58	=58
1.C	-mi-	0.r	.	0c	-no,	1.g	-mi-
2BB-	.	.	.	.	.	2a	.
1GG	.	.	.	1r	.	1b-	.
=59	=59	=59	=59	=59	=59	=59	=59
1.D	-no.	1A	e	1.F	su	1.a	-no.
.	.	1A	sia in	.	.	.	.
2E	.	.	.	2G	va-	2g	.
1F	su	1A	ca-	2A	-len-	1f	su
.	.	.	.	2B-	.	.	.
=60	=60	=60	=60	=60	=60	=60	=60
1.C	va-	1.G	-mi-	0c	-ti	1.e	va-
2BB-	.	2A	-no.	.	.	2f	.
1GG	-len-	1B-	su	1r	.	1g	-len-
=61	=61	=61	=61	=61	=61	=61	=61
1.D	-ti	1.A	va-	1.F	di	1.f	-ti
2E	.	2G	-len-	2G	.	2e	.
1F	di	1F	-ti	2A	.	1d	di
.	.	.	.	2B-	.	.	.
=62	=62	=62	=62	=62	=62	=62	=62
1C	ma-	1E	di	1G	ma-	1c	ma-
1.BB-	-no	1.F	ma-	1.B-	-no	1.d	-no
2C	in	2E	-no	2A	in	2c	in
=63	=63	=63	=63	=63	=63	=63	=63
1AA	ma-	1C	in	1F	.	0c	ma-
0GG	-no	0D	ma-	0G	ma-	.	.
.	.	.	.	.	.	1Bni	.
=64	=64	=64	=64	=64	=64	=64	=64
*M2/1	*	*M2/1	*	*M2/1	*	*M2/1	*
*met(C|)	*	*met(C|)	*	*met(C|)	*	*met(C|)	*
1C	Si-	[0C	-no	1E	-no	0c	-no
1C	-gnor	.	.	2r	.	.	.
.	.	.	.	2G	Si-	.	.
=65	=65	=65	=65	=65	=65	=65	=65
1AA	Iu-	0C]	.	2A	-gnor	0r	.
.	.	.	.	2.c	Iu-	.	.
2AA	-lio	.	.	.	.	.	.
.	.	.	.	4B-	.	.	.
2AA	Or-	.	.	[2A	.	.	.
=66	=66	=66	=66	=66	=66	=66	=66
1BB-	.	0r	.	2A]	.	0r	.
.	.	.	.	4G	.	.	.
.	.	.	.	4F	.	.	.
1BB-	-gan-	.	.	4G	.	.	.
.	.	.	.	4F	.	.	.
.	.	.	.	4E	.	.	.
.	.	.	.	4D	.	.	.
=67	=67	=67	=67	=67	=67	=67	=67
1AA	-ti-	0r	.	1C	-lio	1c	Si-
[1FF	.	.	.	[1A	Or-	1c	-gnor
=68	=68	=68	=68	=68	=68	=68	=68
2FF]	.	0r	.	2A]	.	1A	Iu-
2GG	.	.	.	2G	-gan-	.	.
2AA	.	.	.	[1F	-ti-	2A	-lio
2BB-	.	.	.	.	.	2A	Or-
=69	=69	=69	=69	=69	=69	=69	=69
0GG	.	0r	.	2F]	.	1B-	.
.	.	.	.	4E	.	.	.
.	.	.	.	4D	.	.	.
.	.	.	.	1E	.	1B-	-gan-
=70	=70	=70	=70	=70	=70	=70	=70
1FF	-no,	1c	Si-	0F	-no,	1A	-ti-
[1A	Or-	1c	-gnor	.	.	[1F	.
=71	=71	=71	=71	=71	=71	=71	=71
2A]	.	1A	Iu-	0r	.	2F]	.
2G	-gan-	.	.	.	.	2G	.
[1F	-ti-	2A	-lio	.	.	2A	.
.	.	2A	Or-	.	.	2B-	.
=72	=72	=72	=72	=72	=72	=72	=72
2F]	.	1B-	-gan-	0r	.	0G	.
4E	.	.	.	.	.	.	.
4D	.	.	.	.	.	.	.
1E	.	1B-	-ti-	.	.	.	.
=73	=73	=73	=73	=73	=73	=73	=73
1F	-no,	1A	-no,	1c	Or-	1F	-no,
[1D	Or-	[1F	Or-	[1d	.	[1a	Or-
=74	=74	=74	=74	=74	=74	=74	=74
2D]	.	2F]	.	2d]	.	2a]	.
2E	.	2G	-gan-	2c	-gan-	2g	-gan-
1F	-gan-	2A	-ti-	2.A	-ti-	[1f	-ti-
.	.	2B-	.	.	.	.	.
.	.	.	.	4B-	.	.	.
=75	=75	=75	=75	=75	=75	=75	=75
0C	-ti-	0G	.	[0c	-no	2f]	.
.	.	.	.	.	.	4e	.
.	.	.	.	.	.	4d	.
.	.	.	.	.	.	1e	.
=76	=76	=76	=76	=76	=76	=76	=76
0FF	-no	0F	-no	0c]	.	0f	-no
=77	=77	=77	=77	=77	=77	=77	=77
1r	.	1r	.	1r	.	1r	.
1BB-	e	1D	e	1B-	e	1f	e
=78	=78	=78	=78	=78	=78	=78	=78
1BB-	Pao-	1D	Pao-	1B-	Pao-	1f	Pao-
1BB-	-lo Or-	1D	-lo Or-	1B-	-lo Or-	1f	-lo Or-
=79	=79	=79	=79	=79	=79	=79	=79
1.C	-si-	1.E	-si-	1G	-si-	2e	-si-
.	.	.	.	.	.	1g	.
.	.	.	.	2E	.	.	.
2D	.	2D	.	2F	.	2f	.
=80	=80	=80	=80	=80	=80	=80	=80
1C	.	1E	.	1G	.	2e	.
.	.	.	.	.	.	1c	.
1FF	.	1F	.	1A	.	.	.
.	.	.	.	.	.	[2d	.
=81	=81	=81	=81	=81	=81	=81	=81
0GG	.	0D	.	[0Gl	-no.	4d]	.
.	.	.	.	.	.	4c	.
.	.	.	.	.	.	4Bni	.
.	.	.	.	.	.	4A	.
.	.	.	.	.	.	1Bni	.
=82	=82	=82	=82	=82	=82	=82	=82
0Cl	-no.	0Cl	-no.	0G]	.	0cl	-no.
!!LO:LB:i:g=z
=83||	=83||	=83||	=83||	=83||	=83||	=83||	=83||
*>C	*>C	*>C	*>C	*>C	*>C	*>C	*>C
*clefF4	*	*clefGv2	*	*clefGv2	*	*clefG2	*
*k[b-]	*	*k[b-]	*	*k[b-]	*	*k[b-]	*
*M3/1	*	*M3/1	*	*M3/1	*	*M3/1	*
*met(3)	*	*met(3)	*	*met(3)	*	*met(3)	*
!!!OMD: Sarazenel si spaza
!!section: Sarazenel si spaza
0.r	.	0.r	.	1A	Sa-	1c	Sa-
.	.	.	.	1A	-ra-	1c	-ra-
.	.	.	.	1A	-ze-	1c	-ze-
=84	=84	=84	=84	=84	=84	=84	=84
0.r	.	0.r	.	1.B-	-nel	1.d	-nel
.	.	.	.	2A	.	2c	.
.	.	.	.	1G	si	1B-	si
=85	=85	=85	=85	=85	=85	=85	=85
0.r	.	0.r	.	0F	spa-	1A	spa-
.	.	.	.	.	.	0G	.
.	.	.	.	1E	.	.	.
=86	=86	=86	=86	=86	=86	=86	=86
0.r	.	0.r	.	0F	-za	0F	-za
.	.	.	.	1r	.	1r	.
=87	=87	=87	=87	=87	=87	=87	=87
1F	Schi-	1c	Schi-	1f	Schi-	1a	Schi-
1F	-nie-	1c	-nie-	1f	-nie-	1a	-nie-
1F	-ri,	1c	-ri,	1f	-ri,	1a	-ri,
=88	=88	=88	=88	=88	=88	=88	=88
0BB-	fal-	1.d	fal-	0f	fal-	1.b-	fal-
.	.	2c	.	.	.	2a	-de e
1E-	-de e	1B-	-de e	1e-	-de e	1g	co-
=89	=89	=89	=89	=89	=89	=89	=89
1F	co-	1A	co-	1d	co-	0f	-ra-
0C	-ra-	0G	-ra-	0c	-ra-	.	.
.	.	.	.	.	.	1e	.
=90	=90	=90	=90	=90	=90	=90	=90
*M2/1	*	*M2/1	*	*M2/1	*	*M2/1	*
*met(C|)	*	*met(C|)	*	*met(C|)	*	*met(C|)	*
[0FF	-za,	0F	-za,	1A	-za,	0f	-za,
.	.	.	.	[1c	.	.	.
=91	=91	=91	=91	=91	=91	=91	=91
0FF_	.	0r	.	2c]	.	1r	.
.	.	.	.	2B-	.	.	.
.	.	.	.	2A	.	1c	ar-
.	.	.	.	2G	.	.	.
=92	=92	=92	=92	=92	=92	=92	=92
0FF]	.	1r	.	0F	.	1.f	-ne-
.	.	1C	ar-	.	.	.	.
.	.	.	.	.	.	2e	-si,
=93	=93	=93	=93	=93	=93	=93	=93
1r	.	1.F	-ne-	0r	.	1f	el-
1r	.	.	.	.	.	1g	.
.	.	2E	-si,	.	.	.	.
=94	=94	=94	=94	=94	=94	=94	=94
1r	.	1F	el-	0r	.	1a	-mo
1r	.	1G	.	.	.	1b-	e
=95	=95	=95	=95	=95	=95	=95	=95
1F	fian-	1A	-mo	0r	.	1cc	fian-
2G	-che-	2B-	e	.	.	2b-	-che-
2A	.	[2c	fian-	.	.	[2a	-le-
=96	=96	=96	=96	=96	=96	=96	=96
2F	-le-	2c]	.	0r	.	2a]	.
2D	.	2d	-che-	.	.	4g	.
.	.	.	.	.	.	4f	.
1G	.	1B-	-le-	.	.	1g	.
=97	=97	=97	=97	=97	=97	=97	=97
1D	-cto	0A	-cto	1.d	su	1a	-cto
1r	.	.	.	.	.	1r	.
.	.	.	.	4c	.	.	.
.	.	.	.	4B-	.	.	.
=98	=98	=98	=98	=98	=98	=98	=98
2F	lan-	0r	.	4A	lan-	1a	su
.	.	.	.	4B-	.	.	.
4E	.	.	.	4c	.	.	.
4F	.	.	.	4A	.	.	.
2G	.	.	.	2B-	.	1g	lan-
2E	-ce,	.	.	2G	-ce,	.	.
=99	=99	=99	=99	=99	=99	=99	=99
2F	lan-	1A	su	4A	lan-	2f	-ce,
.	.	.	.	4B-	.	.	.
4E	.	.	.	4c	.	1cc	stoc-
4F	.	.	.	4A	.	.	.
2G	.	1G	lan-	2B-	.	.	.
2E	-ce,	.	.	2G	-ce,	2b-	-chi e
=100	=100	=100	=100	=100	=100	=100	=100
2F	lan-	2F	-ce,	4A	lan-	2a	ma-
.	.	.	.	4B-	.	.	.
4E	.	1c	stoc-	4c	.	4g	.
4F	.	.	.	4A	.	4f	.
2G	.	.	.	2B-	.	2e	.
2E	-ce,	2B-	-chi e	2G	-ce,	[2g	.
=101	=101	=101	=101	=101	=101	=101	=101
2F	stoc-	2A	ma-	2A	stoc-	2g]	.
2D	-chi e	4G	.	2B-	-chi e	1f	.
.	.	4F	.	.	.	.	.
1C	ma-	1G	.	1c	ma-	.	.
.	.	.	.	.	.	2e	.
=102	=102	=102	=102	=102	=102	=102	=102
1FF	-za	0F	-za	1A	-za	0f	-za
1r	.	.	.	1r	.	.	.
=103	=103	=103	=103	=103	=103	=103	=103
*M3/1	*	*M3/1	*	*M3/1	*	*M3/1	*
*met(3)	*	*met(3)	*	*met(3)	*	*met(3)	*
1F	af-	0.r	.	1A	af-	0.r	.
1F	-fib-	.	.	1A	-fib-	.	.
1F	-bia	.	.	1A	-bia	.	.
=104	=104	=104	=104	=104	=104	=104	=104
1.E	que-	0.r	.	1.G	que-	0.r	.
2F	-sto	.	.	2A	-sto	.	.
1G	brac-	.	.	1B-	brac-	.	.
=105	=105	=105	=105	=105	=105	=105	=105
1F	-cia-	0.r	.	0c	-cia-	1f	to
0D	-le-	.	.	.	.	1f	il
.	.	.	.	1Bni	-le-	1f	ba-
=106	=106	=106	=106	=106	=106	=106	=106
0C	-cto	0.r	.	0c	-cto	1.e	-io
.	.	.	.	.	.	2f	.
1r	.	.	.	1r	.	1g	.
=107	=107	=107	=107	=107	=107	=107	=107
1BB-	to	1F	to	1d	to	1f	el
1BB-	il	1F	il	1d	il	0d	.
1BB-	ba-	1F	ba-	1d	ba-	.	.
=108	=108	=108	=108	=108	=108	=108	=108
1.C	-io	1.E	-io	1.G	-io	1c	mo-
.	.	.	.	.	.	1.e	.
2D	el	2F	el	2F	el	.	.
1C	mo-	1G	mo-	1E	mo-	.	.
.	.	.	.	.	.	2d	-rel-
=109	=109	=109	=109	=109	=109	=109	=109
1FF	-rel-	1F	-rel-	1A	-rel-	0c	-le-
0GG	-le-	0D	-le-	0G	-le-	.	.
.	.	.	.	.	.	1Bni	.
=110	=110	=110	=110	=110	=110	=110	=110
*M2/1	*	*M2/1	*	*M2/1	*	*M2/1	*
*met(C|)	*	*met(C|)	*	*met(C|)	*	*met(C|)	*
0C;	-cto	0C;	-cto	0G;	-cto	0c;	-cto
=111	=111	=111	=111	=111	=111	=111	=111
0r	.	0r	.	0c	su	0cc	su
=112	=112	=112	=112	=112	=112	=112	=112
0r	.	0r	.	1d	mes-	1f	mes-
.	.	.	.	1d	-ser	1f	-ser
=113	=113	=113	=113	=113	=113	=113	=113
0C	su	0c	su	1c	Her-	1g	Her-
.	.	.	.	2G	.	1g	-co-
.	.	.	.	[2c	.	.	.
=114	=114	=114	=114	=114	=114	=114	=114
1D	mes-	1F	mes-	2c]	.	0f	-le
.	.	.	.	4Bni	.	.	.
.	.	.	.	4A	.	.	.
1D	-ser	1F	-ser	1Bni	-co-	.	.
=115	=115	=115	=115	=115	=115	=115	=115
1C	-Her-	1G	Her-	[0c	-le	1r	.
1C	-co-	1G	-co-	.	.	1e	Cri-
=116	=116	=116	=116	=116	=116	=116	=116
0FF	-le	1F	-le	0c]	.	2.f	-a-
.	.	.	.	.	.	4g	.
.	.	1c	Cri-	.	.	1a	.
=117	=117	=117	=117	=117	=117	=117	=117
1r	.	1B-	-a-	1r	.	1g	.
1GG	Cri-	[1d	-co e	[1G	Cri-	[1b-	-co e
=118	=118	=118	=118	=118	=118	=118	=118
1GG	-a-	2d]	.	2G]	.	2b-]	.
.	.	2c	.	2A	-a-	2a	.
1GG	-co	2B-	Cer-	1B-	-co	2g	Cer-
.	.	2A	.	.	.	2f	.
=119	=119	=119	=119	=119	=119	=119	=119
1C	e-	1G	-bo-	1c	e-	1e	-bo-
1D	-Cer-	1F	.	1B-	-Cer-	[1f	.
=120	=120	=120	=120	=120	=120	=120	=120
0C	-bo-	0G	.	0c	-bo-	2f]	.
.	.	.	.	.	.	4e	.
.	.	.	.	.	.	4d	.
.	.	.	.	.	.	1e	.
=121	=121	=121	=121	=121	=121	=121	=121
[0FF	.	[0F	-ne,	2A	-ne,	0f	-ne,
.	.	.	.	2.c	Cri-	.	.
.	.	.	.	4B-	.	.	.
.	.	.	.	4A	.	.	.
.	.	.	.	4G	.	.	.
=122	=122	=122	=122	=122	=122	=122	=122
0FF_	.	0F]	.	2A	.	1r	.
.	.	.	.	2.c	-a-	.	.
.	.	.	.	.	.	1c	Con-
.	.	.	.	4B-	.	.	.
.	.	.	.	4A	.	.	.
.	.	.	.	4G	.	.	.
=123	=123	=123	=123	=123	=123	=123	=123
0FF]	.	1r	.	2A	-co e	1.f	-te
.	.	.	.	2.c	Cer-	.	.
.	.	1C	Con-	.	.	.	.
.	.	.	.	4B-	.	.	.
.	.	.	.	4A	.	2e	Ri-
.	.	.	.	4G	.	.	.
=124	=124	=124	=124	=124	=124	=124	=124
1r	.	1.F	-te	2A	-bo-	1d	-nuc-
.	.	.	.	2A	-ne,	.	.
1FF	-Con-	.	.	2r	.	1c	-cio
.	.	2E	Ri-	2A	Con-	.	.
=125	=125	=125	=125	=125	=125	=125	=125
2GG	-te	1D	-nuc-	2B-	-te	1B-	si-
2GG	Ri-	.	.	1G	.	.	.
1AA	-nuc-	1C	-cio	.	.	1c	-gnor
.	.	.	.	2F	Ri-	.	.
=126	=126	=126	=126	=126	=126	=126	=126
2GG	-cio	1BB-	si-	1.G	-nuc-	1d	Ho-
2GG	si-	.	.	.	.	.	.
2C	-gnor	1C	-gnor	.	.	2c	-no-
2C	Ho-	.	.	2A	-cio	[2g	-ra-
=127	=127	=127	=127	=127	=127	=127	=127
2BB-	.	1D	Ho-	1B-	si-	2g]	.
2BB-	-no-	.	.	.	.	2f	.
2C	-ra-	2C	-no-	2G	-gnor	2e	.
2GG	.	[2G	-ra-	[2B-	Ho-	[2d	.
=128	=128	=128	=128	=128	=128	=128	=128
2BB-	.	4G]	.	2B-]	.	2d]	.
.	.	4F	.	.	.	.	.
2C	.	2E	.	2A	-no-	1c	.
1GG	.	1D	.	1G	-ra-	.	.
.	.	.	.	.	.	2Bni	.
=129	=129	=129	=129	=129	=129	=129	=129
0G	-to,	0C	-to,	0E	-to,	0c	-to,
=130	=130	=130	=130	=130	=130	=130	=130
1r	.	1r	.	1r	.	1r	.
1C	syr	1c	syr	1G	syr	1g	syr
=131	=131	=131	=131	=131	=131	=131	=131
1C	di	1c	di	1G	di	1g	di
1E	Piom-	1c	Piom-	1G	Piom-	1g	Piom-
=132	=132	=132	=132	=132	=132	=132	=132
0D	-bi-	1.A	-bi-	0F	-bi-	1.a	-bi-
.	.	2B	.	.	.	4g	.
.	.	.	.	.	.	4f	.
=133	=133	=133	=133	=133	=133	=133	=133
0C;	-no	0c;	-no	0G;	-no	0e;	-no
=134	=134	=134	=134	=134	=134	=134	=134
1GG	A-	1B-	A-	1G	A-	1.g	A-
1C	-ni-	1c	-ni-	2.E	-ni-	.	.
.	.	.	.	.	.	4f	-ni-
.	.	.	.	4F	.	4e	.
=135	=135	=135	=135	=135	=135	=135	=135
1GG	-bal-	1B-	-bal-	1G	-bal-	2d	-bal-
.	.	.	.	.	.	1g	.
1C	-le e	1c	-le e	2.E	-le e	.	.
.	.	.	.	.	.	4f	-le e
.	.	.	.	4F	.	4e	.
=136	=136	=136	=136	=136	=136	=136	=136
1GG	Gui-	1B-	Gui-	1G	Gui-	2d	Gui-
.	.	.	.	.	.	1g	.
1C	-do-	1c	-do-	2.E	-do-	.	.
.	.	.	.	.	.	4f	-do-
.	.	.	.	4F	.	4e	.
=137	=137	=137	=137	=137	=137	=137	=137
1GG	-ne,	1B-	-ne,	1G	-ne,	2.d	-ne,
.	.	.	.	.	.	4c	.
2C	Gui-	2c	Gui-	2E	Gui-	2e	Gui-
[2BB-	-do-	[2d	-do-	[2D	-do-	[2f	-do-
=138	=138	=138	=138	=138	=138	=138	=138
4BB-]	.	2d]	.	4D]	.	4f]	.
4C	.	.	.	4E	.	4e	.
2AA	.	1c	.	4F	.	2c	.
.	.	.	.	4D	.	.	.
1GG	.	.	.	1G	.	1d	.
.	.	2Bni	.	.	.	.	.
=139	=139	=139	=139	=139	=139	=139	=139
1C	-ne	0c	-ne	1G	-ne	0c	-ne
1r	.	.	.	1r	.	.	.
=140	=140	=140	=140	=140	=140	=140	=140
1C	Gio-	0r	.	1G	Gio-	0r	.
1F	-van	.	.	1A	-van	.	.
=141	=141	=141	=141	=141	=141	=141	=141
2E	Sa-	0r	.	2G	Sa-	0r	.
2C	.	.	.	1c	.	.	.
1G	.	.	.	.	.	.	.
.	.	.	.	2Bni	.	.	.
=142	=142	=142	=142	=142	=142	=142	=142
1C	-vel,	1r	.	1c	-vel,	0r	.
1F	Gio-	1A	Gio-	1r	.	.	.
=143	=143	=143	=143	=143	=143	=143	=143
2E	-van	2G	-van	2c	Ma-	0r	.
2C	.	1c	Sa-	2c	-le-	.	.
1G	Sa-	.	.	1d	-spi-	.	.
.	.	2Bni	.	.	.	.	.
=144	=144	=144	=144	=144	=144	=144	=144
1C	-vel,	1c	-vel,	2.c	.	2g	Ma-
.	.	.	.	.	.	2g	-le-
.	.	.	.	4B-	.	.	.
1F	.	1r	.	2A	.	1a	-spi-
.	.	.	.	2F	.	.	.
=145	=145	=145	=145	=145	=145	=145	=145
2E	Ma-	2c	Ma-	1G	-ne	2g	-ne
2C	-le-	2c	-le-	.	.	1cc	Cu-
1G	-spi-	1d	-spi-	1r	.	.	.
.	.	.	.	.	.	2b-	.
=146	=146	=146	=146	=146	=146	=146	=146
1C	-ne	1c	-ne	2r	.	4cc	-ra-
.	.	.	.	.	.	4b-	.
.	.	.	.	2G	Cu-	4a	.
.	.	.	.	.	.	4g	.
2F	Cu-	2A	Cu-	2F	.	2a	.
2E-	.	2B-	.	2G	.	[2g	.
=147	=147	=147	=147	=147	=147	=147	=147
1D	-ra-	1F	-ra-	2A	-ra-	4g]	.
.	.	.	.	.	.	4f	.
.	.	.	.	2B-	.	1f	.
1C	.	1G	.	1c	.	.	.
.	.	.	.	.	.	2e	.
=148	=148	=148	=148	=148	=148	=148	=148
0FFl	-to-	0Fl	-to-	0cl	-to-	0fl	-to-
!!LO:LB:i:g=z
=149||	=149||	=149||	=149||	=149||	=149||	=149||	=149||
*>D	*>D	*>D	*>D	*>D	*>D	*>D	*>D
*clefF4	*	*clefGv2	*	*clefGv2	*	*clefG2	*
*k[b-]	*	*k[b-]	*	*k[b-]	*	*k[b-]	*
*M2/1	*	*M2/1	*	*M2/1	*	*M2/1	*
*met(C|)	*	*met(C|)	*	*met(C|)	*	*met(C|)	*
!!!OMD: Ognun sia presto armato
!!section: Ognun sia presto armato
0r	.	0r	.	1.c	-Og-	1.e	-Og-
.	.	.	.	2d	-nun	2f	-nun
=150	=150	=150	=150	=150	=150	=150	=150
0r	.	0r	.	1c	sia	1g	sia
.	.	.	.	1F	pre-	1a	pre-
=151	=151	=151	=151	=151	=151	=151	=151
1.C	-Og-	1.E	-Og-	1c	-sto	1.g	-sto
.	.	.	.	2.A	ar-	.	.
2D	-nun	2F	-nun	.	.	2f	ar-
.	.	.	.	4B-	.	.	.
=152	=152	=152	=152	=152	=152	=152	=152
1C	sia	1G	sia	2.c	-ma-	1e	-ma-
.	.	.	.	4d	.	.	.
1FF	pre-	1A	pre-	2c	-to	1c	-to
.	.	.	.	2r	.	.	.
=153	=153	=153	=153	=153	=153	=153	=153
1.C	-sto	1.G	-sto	1c	e	1.e	e
.	.	.	.	2.A	a	.	.
2D	ar-	2F	ar-	.	.	2f	.
.	.	.	.	4B-	.	.	.
=154	=154	=154	=154	=154	=154	=154	=154
1C	-ma-	1E	-ma-	2.c	ca-	1g	a
.	.	.	.	4d	.	.	.
1FF	-to	1C	-to	2c	-val	1a	ca-
.	.	.	.	2r	.	.	.
=155	=155	=155	=155	=155	=155	=155	=155
1.C	e	1.E	e	1c	mon-	1.g	-val
.	.	.	.	2.A	-ta-	.	.
2D	.	2F	.	.	.	2f	mon-
.	.	.	.	4B-	.	.	.
=156	=156	=156	=156	=156	=156	=156	=156
1C	a	1G	a	2.c	.	1e	-ta-
.	.	.	.	4d	.	.	.
1FF	ca-	1A	ca-	2c	-to,-	1c	-to,-
.	.	.	.	2r	.	.	.
=157	=157	=157	=157	=157	=157	=157	=157
1.C	-val	1.G	-val	1c	-mon-	1.e	-mon-
.	.	.	.	2.A	-ta-	.	.
2D	mon-	2F	mon-	.	.	2f	.
.	.	.	.	4B-	.	.	.
=158	=158	=158	=158	=158	=158	=158	=158
1C	-ta-	1E	-ta-	2.c	.	1g	-ta-
.	.	.	.	4B-	.	.	.
1FF	.	1F	.	1A	.	2c	.
.	.	.	.	.	.	[2d	.
=159	=159	=159	=159	=159	=159	=159	=159
0GG	-to	0D	.	1.G	.	4d]	.
.	.	.	.	.	.	4c	.
.	.	.	.	.	.	4Bni	.
.	.	.	.	.	.	4A	.
.	.	.	.	.	.	1Bni	.
.	.	.	.	2F	.	.	.
=160	=160	=160	=160	=160	=160	=160	=160
1r	.	[0C	-to	2E	.	0c	-to
.	.	.	.	2D	.	.	.
[1G	su	.	.	1C	-to	.	.
=161	=161	=161	=161	=161	=161	=161	=161
2G]	.	1C]	.	2r	.	1r	.
2F	.	.	.	2c	su	.	.
1E	.	1r	.	2c	spa-	1g	su
.	.	.	.	4B	.	.	.
.	.	.	.	4c	.	.	.
=162	=162	=162	=162	=162	=162	=162	=162
2D	spa-	1r	.	2d	.	2a	spa-
2F	-de	.	.	2c	-de	2a	-de
2C	spro-	1G	su	2c	spro-	2g	spro-
2E	.	.	.	4B	.	2e	.
.	.	.	.	4c	.	.	.
=163	=163	=163	=163	=163	=163	=163	=163
2D	-ni	2A	spa-	2d	-ni	2.f	-ni
2F	le	2A	-de	2c	le	.	.
.	.	.	.	.	.	4g	le
2C	bar-	2.G	spro-	2c	bar-	2e	bar-
2E	.	.	.	4B	.	2e	-de al
.	.	4E	.	4c	.	.	.
=164	=164	=164	=164	=164	=164	=164	=164
2D	-de al	2.F	-ni	2d	-de al	2a	.
2F	le-	.	.	2c	le-	2a	le-
.	.	4G	le	.	.	.	.
2C	-ar-	2E	bar-	2c	-ar-	2g	-ar-
2E	.	2E	-de al	4B	.	2e	-do
.	.	.	.	4c	.	.	.
=165	=165	=165	=165	=165	=165	=165	=165
2D	-do	2A	.	2d	-do	2.f	vi-
2F	vi-	2A	le-	2c	vi-	.	.
.	.	.	.	.	.	4g	.
2C	-e,-	2.G	-ar-	2c	-e,-	1e	-e
2E	.	.	.	4B	.	.	.
.	.	4E	.	4c	.	.	.
=166	=166	=166	=166	=166	=166	=166	=166
2D	.	2.F	.	2d	.	1a	su
2F	-vi-	.	.	2c	-vi-	.	.
.	.	4G	.	.	.	.	.
2C	-e,-	2E	-do	2c	-e	1g	pol-
2E	.	2E	vi-	4B	.	.	.
.	.	.	.	4c	.	.	.
=167	=167	=167	=167	=167	=167	=167	=167
2D	.	1A	-e	2d	.	2f	.
2F	-vi-	.	.	2c	.	1f	-tro-
1C	-e	1G	su	1c	su	.	.
.	.	.	.	.	.	2e	.
=168	=168	=168	=168	=168	=168	=168	=168
2FF	su	2F	pol-	2r	.	1f	-ni
2AA	pol-	1F	-tro-	2c	pol-	.	.
1GG	-tro-	.	.	2B-	-tro-	1r	.
.	.	2E	.	4A	.	.	.
.	.	.	.	4G	.	.	.
=169	=169	=169	=169	=169	=169	=169	=169
0FF	-ni	0F	-ni	1A	-ni	0r	.
.	.	.	.	2r	.	.	.
.	.	.	.	2A	chi	.	.
=170	=170	=170	=170	=170	=170	=170	=170
2r	.	0r	.	2A	sia	0r	.
2FF	chi	.	.	2A	il	.	.
2C	sia	.	.	2.G	piu	.	.
2C	il	.	.	.	.	.	.
.	.	.	.	4A	.	.	.
=171	=171	=171	=171	=171	=171	=171	=171
2D	piu	0r	.	2B-	ga-	0r	.
2C	ga-	.	.	2.c	-gliar-	.	.
1AA	-gliar-	.	.	.	.	.	.
.	.	.	.	4B-	.	.	.
.	.	.	.	2A	.	.	.
=172	=172	=172	=172	=172	=172	=172	=172
2BB-	.	0r	.	2G	.	0r	.
2.C	.	.	.	2.A	.	.	.
4BB-	.	.	.	4G	.	.	.
2AA	.	.	.	[2F	.	.	.
=173	=173	=173	=173	=173	=173	=173	=173
1GG	.	0r	.	2F]	.	1b-	-se-
.	.	.	.	2E	.	.	.
1FF	-do	.	.	1F	-do	2a	-gui-
.	.	.	.	.	.	2a	-tiam-
=174	=174	=174	=174	=174	=174	=174	=174
0r	.	1B-	-se-	0r	.	1g	-lo
.	.	2c	-gui-	.	.	2a	sten-
.	.	2c	-tiam-	.	.	[2cc	-dar-
=175	=175	=175	=175	=175	=175	=175	=175
1BB-	se-	2d	-lo	0r	.	2cc]	.
.	.	2d	sten-	.	.	2b-	.
2C	-gui-	1c	-dar-	.	.	2a	.
2C	-tiam-	.	.	.	.	[2g	.
=176	=176	=176	=176	=176	=176	=176	=176
2D	-lo	1F	.	0r	.	2g]	.
2D	sten-	.	.	.	.	1f	.
1C	-dar-	1G	.	.	.	.	.
.	.	.	.	.	.	2e	.
=177	=177	=177	=177	=177	=177	=177	=177
0FF	-do	[0F	-do	1c	vi-	[0f	-do
.	.	.	.	1c	-e	.	.
=178	=178	=178	=178	=178	=178	=178	=178
0r	.	0F]	.	1d	su	0f]	.
.	.	.	.	1c	fran-	.	.
=179	=179	=179	=179	=179	=179	=179	=179
1F	vi-	0r	.	2.A	.	0r	.
.	.	.	.	4B-	.	.	.
1F	-e	.	.	2c	-chi	.	.
.	.	.	.	[2d	Sfor-	.	.
=180	=180	=180	=180	=180	=180	=180	=180
1G	su	0r	.	2d]	.	0r	.
.	.	.	.	4c	.	.	.
.	.	.	.	4B-	.	.	.
1F	fran-	.	.	1A	.	.	.
=181	=181	=181	=181	=181	=181	=181	=181
2.D	.	0r	.	2.B-	-ze-	0r	.
4E	-chi	.	.	4c	.	.	.
2F	Sfor-	.	.	2d	.	.	.
[2G	-ze-	.	.	2e-	.	.	.
=182	=182	=182	=182	=182	=182	=182	=182
4G]	.	0r	.	2d	.	0r	.
4F	.	.	.	.	.	.	.
2E	.	.	.	1c	.	.	.
1D	.	.	.	.	.	.	.
.	.	.	.	2Bni	.	.	.
=183	=183	=183	=183	=183	=183	=183	=183
1C	-schi-	0r	.	1c	-schi-	1r	.
1r	.	.	.	2F	-Bo-	1cc	Bo-
.	.	.	.	4E	.	.	.
.	.	.	.	4F	.	.	.
=184	=184	=184	=184	=184	=184	=184	=184
1r	.	1r	.	2G	-lo-	2b-	-lo-
.	.	.	.	2E	-gne-	4a	.
.	.	.	.	.	.	4g	.
2FF	-Bo-	1c	Bo-	1F	-si	1a	-gne-
4EE	.	.	.	.	.	.	.
4FF	.	.	.	.	.	.	.
=185	=185	=185	=185	=185	=185	=185	=185
2GG	-lo-	2B-	-lo-	1r	.	1g	-si e
2EE	-gne-	4A	.	.	.	.	.
.	.	4G	.	.	.	.	.
1FF	-si	1A	-gne-	2F	e-	1cc	Gal-
.	.	.	.	4E	-Gal-	.	.
.	.	.	.	4F	.	.	.
=186	=186	=186	=186	=186	=186	=186	=186
1r	.	1G	-si e	2G	-le-	2b-	-le-
.	.	.	.	2E	.	4a	.
.	.	.	.	.	.	4g	.
2FF	e-	1c	Gal-	1F	-schi,	1a	.
4EE	-Gal-	.	.	.	.	.	.
4FF	.	.	.	.	.	.	.
=187	=187	=187	=187	=187	=187	=187	=187
2GG	-le-	2B-	-le-	1r	.	1g	-schi,
2EE	.	4A	.	.	.	.	.
.	.	4G	.	.	.	.	.
2FF	-schi,	2A	.	2c	e-	2f	Gal-
2C	Gal-	2G	.	4B-	-Gal-	[2g	-le-
.	.	.	.	4c	.	.	.
=188	=188	=188	=188	=188	=188	=188	=188
2F	-le-	2A	-schi,	2d	-le-	4g]	.
.	.	.	.	.	.	4f	.
2D	.	2B-	Gal-	2B-	.	1f	.
1C	.	1G	-le-	1c	.	.	.
.	.	.	.	.	.	2e	.
=189	=189	=189	=189	=189	=189	=189	=189
1FF	-schi	1F	-schi	1A	-schi	1f	-schi
1BB-	.	2r	.	2F	.	2r	.
.	.	2F	a	2B-	a	2f	a
=190	=190	=190	=190	=190	=190	=190	=190
2r	.	2B-	lor	2F	lor	2d	lor
2BB-	a	2F	a	2B-	a	2f	a
2BB-	lor	2B-	lor	2F	lor	2d	lor
2BB-	a	2F	che	2B-	che	2f	che
=191	=191	=191	=191	=191	=191	=191	=191
2BB-	lor	2B-	son	2F	son	2d	son
2BB-	che	2F	pri-	2B-	pri-	2f	pri-
2BB-	son	2.B-	-gio-	1F	-gio-	2d	-gio-
2BB-	pri-	.	.	.	.	2f	-ni e
.	.	4A	-ni e	.	.	.	.
=192	=192	=192	=192	=192	=192	=192	=192
2C	-gio-	2G	rot-	2c	-ni	2c	rot-
2D	-ni e	2F	.	2B-	e-	1f	.
1C	rot-	1G	.	1c	-rot-	.	.
.	.	.	.	.	.	2e	.
=193	=193	=193	=193	=193	=193	=193	=193
0FF	-ti	0F	-ti	1A	-ti	1f	-ti
.	.	.	.	1r	.	1r	.
=194	=194	=194	=194	=194	=194	=194	=194
*M3/1	*	*M3/1	*	*M3/1	*	*M3/1	*
*met(3)	*	*met(3)	*	*met(3)	*	*met(3)	*
1C	va-	1c	su	1G	su	1e	su
1C	-len-	1c	buon	1G	buon	1e	buon
1C	-ti e	1c	va-	1G	va-	1e	va-
=195	=195	=195	=195	=195	=195	=195	=195
0D	fran-	0A	-len-	0d	-len-	0f	-len-
1D	-ti e	1A	-ti e	1d	-ti e	1f	-ti e
=196	=196	=196	=196	=196	=196	=196	=196
0GG	fran-	0B-	fran-	0d	fran-	1.g	fran-
.	.	.	.	.	.	2f	.
1GG	.	1B-	.	1d	.	2e	.
.	.	.	.	.	.	2d	.
=197	=197	=197	=197	=197	=197	=197	=197
0C	.	0G	.	0c	.	0e	.
1C	-chi	1G	-chi	1c	-chi	1e	-chi
=198	=198	=198	=198	=198	=198	=198	=198
0FF	stra-	1.A	stra-	0c	stra-	1.f	stra-
.	.	2G	.	.	.	2e	.
1FF	.	2F	.	1c	.	2d	.
.	.	2E	.	.	.	2c	.
=199	=199	=199	=199	=199	=199	=199	=199
1.BB-	-dio-	0F	-dio-	1.B-	-dio-	1.d	-dio-
2C	.	.	.	2A	.	2e	.
1D	.	1F	.	1B-	.	2f	.
.	.	.	.	.	.	2g	.
=200	=200	=200	=200	=200	=200	=200	=200
1C	.	0G	.	1c	.	1e	.
1GG	.	.	.	1B-	.	1.d	.
1AA	.	1F	.	[1A	.	.	.
.	.	.	.	.	.	2c	.
=201	=201	=201	=201	=201	=201	=201	=201
1C	.	1E	.	1A]	.	0c	.
0GG	.	0D	.	0G	.	.	.
.	.	.	.	.	.	1Bni	.
=202	=202	=202	=202	=202	=202	=202	=202
*M2/1	*	*M2/1	*	*M2/1	*	*M2/1	*
*met(C|)	*	*met(C|)	*	*met(C|)	*	*met(C|)	*
0C	-cti	0C	-cti	1G	-cti	0c	-cti
.	.	.	.	1r	.	.	.
=203	=203	=203	=203	=203	=203	=203	=203
0r	.	0r	.	1G	su	0r	.
.	.	.	.	1F	.	.	.
=204	=204	=204	=204	=204	=204	=204	=204
0r	.	0r	.	1G	buon	1g	su
.	.	.	.	1A	sol-	1f	.
=205	=205	=205	=205	=205	=205	=205	=205
1GG	su	1G	su	1B-	-da-	1g	buon
1D	.	1F	.	1A	-ti e	1a	sol-
=206	=206	=206	=206	=206	=206	=206	=206
1GG	buon	1G	buon	2G	.	1b-	-da-
.	.	.	.	1G	doc-	.	.
1D	sol-	1A	sol-	.	.	1a	-ti e
.	.	.	.	2F	.	.	.
=207	=207	=207	=207	=207	=207	=207	=207
1GG	-da-	1B-	-da-	4G	.	2g	.
.	.	.	.	4A	.	.	.
.	.	.	.	4B-	.	1g	doc-
.	.	.	.	4c	.	.	.
1D	-ti e	1A	-ti e	1d	.	.	.
.	.	.	.	.	.	2f#i	.
=208	=208	=208	=208	=208	=208	=208	=208
1GG	doc-	2G	.	1d	-ti	1g	-ti
.	.	1G	doc-	.	.	.	.
1D	-ti	.	.	1d	.	1r	.
.	.	2F	.	.	.	.	.
=209	=209	=209	=209	=209	=209	=209	=209
2r	.	1G	-ti	2r	.	2r	.
2GG	le-	.	.	2d	le-	2g	le-
2D	-viam	2r	.	2d	-viam	2f	-viam
2GG	di	2G	le-	2d	di	2g	di
=210	=210	=210	=210	=210	=210	=210	=210
2D	li	2F	-viam	2d	li	2a	li
2GG	quel-	2G	di	2d	quel-	2b-	quel-
2D	-la	2A	li	2d	-la	2a	-la
2GG	bru-	2B-	quel-	2d	bru-	2g	bru-
=211	=211	=211	=211	=211	=211	=211	=211
2D	-cta	2A	-la	2d	-cta	2f	-cta
2GG	ca-	2G	bru-	2d	ca-	2b-	ca-
2D	-na-	2F	-cta	2d	-na-	2a	-na-
2E	.	2B-	ca-	2G	.	[2g	.
=212	=212	=212	=212	=212	=212	=212	=212
2F	.	2A	-na-	2A	.	4g]	.
.	.	.	.	.	.	4f	.
2D	.	2F	.	2B-	.	1f	.
1C	.	1G	.	1c	.	.	.
.	.	.	.	.	.	2e	.
=213	=213	=213	=213	=213	=213	=213	=213
0FFl	-glia.	0Fl	-glia.	0cl	-glia.	0fl	-glia.
==	==	==	==	==	==	==	==
*-	*-	*-	*-	*-	*-	*-	*-
!!!RDF**kern: l=long note in original notation
!!!RDF**kern: i=editorial accidental
!!!ENC: Jesse Rodin 8 Dec 2019
!!!END: 2019/12/08/
!!!EED: Jesse Rodin
!!!EEV: 2019/12/10/
!!!ONB: Translated from MusicXML and edited on 2019/12/10/ by Craig Sapp
!!muse2ps: C^@{COM}^i2I150v85,85,85,150z18l2650c70
